X:1
T:James Gibb editions
T:Iste Confessor - Thermignon
T:#
%%score { 1 | 2 } 3
L:1/8
Q:1/4=92
M:3/4
K:Bb
V:1 treble nm="Soprano I" snm="S"
V:2 treble 
V:3 treble nm="Alto" snm="A"
V:1
"^Iste Confessor""^Delfino Thermignon\n (1861-1944)""^moderato"!f! d2 c2 B2 | e4 e2 | %2
w: I- ste Con-|fes- sor|
w: Cu- jus ob-|prae- stans|
w: Sit sa- lus|il- li,|
 (cd) (ef) gf | e4 d2 | d2 c2 B2 | A4 A2 |[M:3/4] BB B2 d2 | c4 c2 | z6 | z6 | f2 =e2 f2 | g4 f2 | %12
w: Do\- * mi\- * ni co-|len- tes|quem pi- e|lau- dant|po- pu- li per|or- bem:|||hac di- e|lae- tus,|
w: me\- * ri\- * tum fre-|quen- tur,|ae- gra quae|pas- sim|ja- cu- e- re|mem- bra,|||vi- ri- bus|mor- bi|
w: de\- * cus, * at- que|vir- tus,|qui su- per|coe- li|so- li- o co-|ru- scans,|||to- ti- us|mun- di|
 _ee d2 B2 | d4 c2 | (ABcdec | f2) dd (Be | d2 c4) | !fermata!B6 || (e2 Bc d2 | c6) | %20
w: me- ru- it be-|a- tus|scan\- * * * * *|* de- re se\- *||des|||
w: do- mi- tis, sa-|lu- ti|re\- * * * * *|* sti- tu- un\- *||tur.|||
w: se- ri- em gu-|ber- nat|tri\- * * * * *|* nus et u\- *||nus.|A\- * * *||
 !fermata!B6 |] %21
w: |
w: |
w: men.|
V:2
!f! B2 A2 F2 | G4 G2 | AA B2 B2 | B4 B2 | B2 A2 G2 | (G2 ^F2) F2 |[M:3/4] GG G2 B2 | A4 A2 | z6 | %9
w: I- ste Con-|fes- sor|Do- mi- ni co-|len- tes|quem pi- e|lau\- * dant|po- pu- li per|or- bem:||
w: Cu- jus ob-|prae- stans|me- ri- tum fre-|quen- tur,|ae- gra quae|pas\- * sim|ja- cu- e- re|mem- bra,||
w: Sit sa- lus|il- li,|de- cus, at- que|vir- tus,|qui su- per|coe\- * li|so- li- o co-|ru- scans,||
 d2 ^c2 d2 | (A2 ^c2 d2 | ^c4) d2 | z2 BB FF | G4 G2 | (F2 G2) Gc | (B4 G2 | B4 A2 | %17
w: hac di- e,|hac di- e|lae- tus,|me- ru- it be-|a- tus|scan\- * de- re|se\- *||
w: vi- ri- bus|mor\- * *|* bi|do- mi- tis, sa-|lu- ti|re\- * sti- tu-|un\- *||
w: to- ti- us|mun\- * *|* di|se- ri- em gu-|ber- nat|tri\- * nus et|u\- *||
 !fermata!B6) || (G4 B2- | B2 AG A2) | !fermata!B6 |] %21
w: des.||||
w: tur.||||
w: nus.|A\- *||men.|
V:3
!f! B2 F2 D2 | C4 C2 | F2 (GF) ED | C4 B,2 | z6 | z6 |[M:3/4] GG E2 B,2 | F4 F2 | B2 A2 B2 | %9
w: I- ste Con-|fes- sor|Do- mi\- * ni co-|len- tes|||po- pu- li per|or- bem:|hac di- e|
w: Cu- jus ob-|prae- stans|me- ri\- * tum fre-|quen- tur,|||ja- cu- e- re|mem- bra,|vi- ri- bus|
w: Sit sa- lus|il- li,|de- cus, * at- que|vir- tus,|||so- li- o co-|ru- scans,|to- ti- us|
 F4 F2 | D2 A2 A2 | B4 B2 | cc F2 D2 | =E4 E2 | (F2 (_ED)) (CE) | (D2 (B,2 E2 | F6)) | %17
w: lae- tus,|hac di- e|lae- tus,|me- ru- it be-|a- tus|scan\- * * de\- *|re se\- *||
w: mor- bi,|vi- ri- bus|mor- bi|do- mi- tis, sa-|lu- ti|re- sti\- * tu\- *|un\- * *||
w: mun- di,|to- ti- us|mun- di|se- ri- em gu-|ber- nat|tri- nus * et *|u\- * *||
 !fermata!B,6 || (E4 B,2 | F6) | !fermata!B,6 |] %21
w: des.||||
w: tur.||||
w: nus.|A\- *||men.|

